X: 42147
T: Watchmaker, The
R: reel
M: 4/4
K: Eminor
B|BcAc BAGB|EAAB cded|BcAc BAGB|(3cBA BG EA (3AAA|
cBAc BGGB|cAA2 cded|BcAc BAGB|(3cBA BG EA (3AAA|
c2ec gcec|G2 (3BAG dG (3BAG|c2ec gcec|eaag a3b
geeg fedf|edce dBGB|ABcd e=fed|(3cBA BG EA (3AAA|

